X:1
L:1/8
Q:1/4=160
M:2/2
K:D
 g |""_No Key Sig in MS"" egdg BgBA | G2 BG BGGg | egdg BgBG | D2 AG FDD |:""^NB1"" F | G2 BA BGdB | 
 G2 BA BEEF | G2 BG BG (B/c/d) | D2 AG FDD |]
